<?xml version="1.0" encoding="UTF-8"?>
<map version="1.8" tiledversion="1.8.6" orientation="orthogonal" renderorder="right-down" width="1" height="1" tilewidth="1000" tileheight="600" infinite="0" nextlayerid="4" nextobjectid="64">
 <tileset firstgid="1" name="forest" tilewidth="1000" tileheight="600" tilecount="1" columns="1">
  <image source="../img/郊外.jpg" width="1000" height="600"/>
 </tileset>
 <layer id="1" name="Ground" width="1" height="1">
  <data encoding="csv">
1
</data>
 </layer>
 <objectgroup id="2" name="actor">
  <object id="1" name="sun" x="96" y="384">
   <point/>
  </object>
 </objectgroup>
 <objectgroup id="3" name="obstacle">
  <object id="12" x="13" y="206.5" width="30.5" height="109.5">
   <ellipse/>
  </object>
  <object id="13" x="46" y="214" width="31.5" height="81">
   <ellipse/>
  </object>
  <object id="14" x="14" y="316" width="17.5" height="161">
   <ellipse/>
  </object>
  <object id="15" x="41" y="421" width="31.5" height="109.5">
   <ellipse/>
  </object>
  <object id="16" x="50" y="295.5" width="21" height="44.5">
   <ellipse/>
  </object>
  <object id="17" x="32.5" y="313.5" width="14" height="44">
   <ellipse/>
  </object>
  <object id="20" x="75.5" y="476.5" width="154" height="55">
   <ellipse/>
  </object>
  <object id="21" x="230" y="493.5" width="288.5" height="36.5">
   <ellipse/>
  </object>
  <object id="22" x="516" y="502" width="176" height="29.5">
   <ellipse/>
  </object>
  <object id="23" x="171.5" y="50"/>
  <object id="24" x="346.5" y="218.5" width="218" height="118.5">
   <ellipse/>
  </object>
  <object id="25" x="565" y="217.5" width="216" height="118"/>
  <object id="26" x="453" y="339" width="235.5" height="25.5">
   <ellipse/>
  </object>
  <object id="27" x="589.5" y="369.5" width="212.5" height="67.5">
   <ellipse/>
  </object>
  <object id="28" x="739.5" y="437" width="188.5" height="57.5">
   <ellipse/>
  </object>
  <object id="29" x="695" y="396" width="188" height="72.5">
   <ellipse/>
  </object>
  <object id="30" x="533.5" y="350" width="171" height="67">
   <ellipse/>
  </object>
  <object id="31" x="415.5" y="305" width="242.5" height="85">
   <ellipse/>
  </object>
  <object id="32" x="310.5" y="265" width="192" height="97.5">
   <ellipse/>
  </object>
  <object id="34" x="823.5" y="5.5" width="94" height="44.5"/>
  <object id="35" x="892" y="53" width="40" height="137"/>
  <object id="36" x="849" y="115" width="44" height="81"/>
  <object id="37" x="775.5" y="145.5" width="106.5" height="65.5"/>
  <object id="38" x="708" y="197.5" width="159.5" height="33.5"/>
  <object id="39" x="654" y="190.5" width="147.5" height="42.5">
   <ellipse/>
  </object>
  <object id="41" x="146.5" y="12.5" width="335" height="129.5">
   <ellipse/>
  </object>
  <object id="42" x="359.5" y="3.5" width="360.5" height="127">
   <ellipse/>
  </object>
  <object id="43" x="664.5" y="10" width="69.5" height="33">
   <ellipse/>
  </object>
  <object id="44" x="10.5" y="8" width="255" height="156.5">
   <ellipse/>
  </object>
  <object id="45" x="6.5" y="105.5" width="34.5" height="53">
   <ellipse/>
  </object>
  <object id="46" x="28" y="137" width="291.5" height="34">
   <ellipse/>
  </object>
  <object id="47" x="303.5" y="136" width="177.5" height="16.5">
   <ellipse/>
  </object>
  <object id="48" x="403" y="105.5" width="240.5" height="42.5">
   <ellipse/>
  </object>
  <object id="50" x="877" y="438" width="118" height="51.5">
   <ellipse/>
  </object>
  <object id="52" x="686.5" y="525" width="124.5" height="71.5">
   <ellipse/>
  </object>
  <object id="53" x="810.5" y="560" width="97.5" height="36.5">
   <ellipse/>
  </object>
  <object id="55" x="901" y="486" width="79" height="31">
   <ellipse/>
  </object>
  <object id="56" x="843.5" y="474" width="101.5" height="33.5">
   <ellipse/>
  </object>
  <object id="57" x="859.5" y="133.5" width="134" height="182"/>
  <object id="58" x="915" y="5.5" width="83" height="122.5"/>
  <object id="59" x="770.5" y="222" width="135" height="131.5"/>
  <object id="60" x="742.5" y="306" width="253.5" height="119"/>
  <object id="61" x="621" y="307.5" width="213.5" height="72.5"/>
  <object id="62" x="859.5" y="409.5" width="135" height="96"/>
 </objectgroup>
</map>
