<?xml version="1.0" encoding="UTF-8"?>
<map version="1.8" tiledversion="1.8.6" orientation="orthogonal" renderorder="right-down" width="1" height="1" tilewidth="1999" tileheight="1495" infinite="0" nextlayerid="9" nextobjectid="343">
 <tileset firstgid="1" name="temple" tilewidth="1999" tileheight="1495" tilecount="1" columns="1">
  <image source="../img/temple.jpg" width="1999" height="1495"/>
 </tileset>
 <objectgroup id="3" name="actor" offsetx="-380" offsety="-90">
  <object id="45" name="sun" x="686.333" y="1032.67">
   <point/>
  </object>
  <object id="47" name="tang" x="781" y="974">
   <point/>
  </object>
 </objectgroup>
 <objectgroup id="4" name="monster" locked="1">
  <object id="242" name="M1" x="338.667" y="833.333" width="37.3333" height="44"/>
  <object id="244" name="M2" x="716" y="628" width="49.3333" height="48"/>
  <object id="246" name="M3" x="1252" y="874.667" width="49.3333" height="58.6667"/>
  <object id="247" name="M4" x="1177.33" y="1138.67" width="65.3333" height="58.6667"/>
 </objectgroup>
 <imagelayer id="6" name="backGroud" locked="1">
  <image source="../img/temple.jpg" width="1999" height="1495"/>
 </imagelayer>
 <objectgroup id="7" name="obstacle">
  <object id="89" x="1056" y="1342" width="152" height="78"/>
  <object id="90" x="1100" y="1320" width="188" height="48"/>
  <object id="91" x="1160" y="1280" width="184" height="62"/>
  <object id="92" x="1220" y="1240" width="212" height="52"/>
  <object id="93" x="1306" y="1194" width="206" height="48"/>
  <object id="94" x="1402" y="1170" width="206" height="52"/>
  <object id="95" x="1508" y="1138" width="144" height="40"/>
  <object id="96" x="1524" y="1084" width="140" height="60"/>
  <object id="97" x="1586" y="994" width="174" height="92"/>
  <object id="98" x="1580" y="898" width="196" height="98"/>
  <object id="101" x="1914" y="766" width="76" height="76"/>
  <object id="102" x="1932" y="722" width="72" height="44"/>
  <object id="103" x="1970" y="684" width="70" height="52"/>
  <object id="104" x="1928" y="392" width="96" height="112"/>
  <object id="105" x="2020" y="502" width="4" height="2"/>
  <object id="106" x="1966" y="510" width="42" height="46"/>
  <object id="107" x="1814" y="374" width="102" height="86"/>
  <object id="108" x="1916" y="460"/>
  <object id="109" x="1748" y="352" width="80" height="86"/>
  <object id="110" x="1758" y="308" width="66" height="50"/>
  <object id="111" x="1796" y="256" width="72" height="70"/>
  <object id="112" x="1726" y="190" width="122" height="66"/>
  <object id="113" x="1646" y="190" width="90" height="90"/>
  <object id="114" x="1600" y="244" width="86" height="98"/>
  <object id="115" x="1538" y="314" width="64" height="76"/>
  <object id="116" x="1590" y="386" width="26" height="78"/>
  <object id="117" x="1614" y="436" width="54" height="34"/>
  <object id="118" x="1658" y="456" width="54" height="42"/>
  <object id="119" x="1740" y="478" width="40" height="52"/>
  <object id="120" x="1788" y="512" width="64" height="36"/>
  <object id="121" x="1862" y="544" width="44" height="50"/>
  <object id="122" x="1898" y="588" width="16" height="40"/>
  <object id="123" x="1868" y="636" width="18" height="90"/>
  <object id="124" x="1820" y="716" width="42" height="28"/>
  <object id="125" x="1688" y="706" width="130" height="36"/>
  <object id="126" x="1656" y="726" width="56" height="58"/>
  <object id="127" x="1544" y="738" width="110" height="68"/>
  <object id="128" x="1454" y="746" width="88" height="46"/>
  <object id="129" x="1380" y="774" width="76" height="50"/>
  <object id="130" x="1284" y="762" width="104" height="54"/>
  <object id="131" x="1176" y="692" width="132" height="50"/>
  <object id="132" x="1236" y="748" width="62" height="34"/>
  <object id="133" x="1086" y="660" width="98" height="44"/>
  <object id="134" x="996" y="636" width="94" height="40"/>
  <object id="135" x="1010" y="604" width="90" height="32"/>
  <object id="136" x="1034" y="482" width="96" height="62"/>
  <object id="137" x="1076" y="550" width="40" height="56"/>
  <object id="138" x="944" y="468" width="130" height="40"/>
  <object id="139" x="864" y="458" width="122" height="42"/>
  <object id="140" x="804" y="468" width="94" height="28"/>
  <object id="141" x="800" y="406" width="72" height="48"/>
  <object id="142" x="796" y="356" width="64" height="56"/>
  <object id="143" x="672" y="452" width="34" height="50"/>
  <object id="144" x="682" y="504" width="40" height="52"/>
  <object id="145" x="570" y="544" width="118" height="32"/>
  <object id="146" x="682" y="576" width="6" height="2"/>
  <object id="147" x="544" y="596" width="80" height="24"/>
  <object id="148" x="566" y="572" width="64" height="36"/>
  <object id="149" x="476" y="632" width="66" height="42"/>
  <object id="150" x="498" y="608" width="60" height="32"/>
  <object id="156" x="656" y="392" width="38" height="54"/>
  <object id="159" x="832" y="190" width="60" height="88"/>
  <object id="160" x="788" y="282" width="92" height="64"/>
  <object id="161" x="826" y="90" width="56" height="92"/>
  <object id="162" x="768" y="14" width="78" height="86"/>
  <object id="163" x="698" y="14" width="96" height="72"/>
  <object id="164" x="588" y="18" width="106" height="30"/>
  <object id="165" x="576" y="60" width="32" height="108"/>
  <object id="167" x="484" y="138" width="102" height="50"/>
  <object id="168" x="412" y="158" width="62" height="50"/>
  <object id="169" x="364" y="194" width="98" height="76"/>
  <object id="170" x="362" y="266" width="72" height="42"/>
  <object id="171" x="302" y="256" width="52" height="38"/>
  <object id="172" x="266" y="196" width="74" height="72"/>
  <object id="173" x="188" y="144" width="86" height="86"/>
  <object id="174" x="134" y="182" width="78" height="54"/>
  <object id="175" x="76" y="132" width="102" height="48"/>
  <object id="176" x="28" y="172" width="50" height="36"/>
  <object id="177" x="2" y="214" width="48" height="32"/>
  <object id="178" x="-4" y="272" width="26" height="246"/>
  <object id="179" x="12" y="512" width="44" height="44"/>
  <object id="180" x="48" y="542" width="62" height="50"/>
  <object id="181" x="102" y="578" width="42" height="48"/>
  <object id="182" x="138" y="612" width="96" height="50"/>
  <object id="183" x="246" y="624" width="64" height="20"/>
  <object id="184" x="286" y="604" width="96" height="24"/>
  <object id="185" x="302" y="564" width="86" height="32"/>
  <object id="186" x="362" y="526" width="66" height="44"/>
  <object id="187" x="412" y="504" width="68" height="34"/>
  <object id="188" x="460" y="474" width="56" height="30"/>
  <object id="189" x="506" y="466" width="46" height="18"/>
  <object id="190" x="538" y="448" width="64" height="28"/>
  <object id="191" x="570" y="422" width="42" height="34"/>
  <object id="192" x="602" y="384" width="50" height="30"/>
  <object id="194" x="618" y="362" width="48" height="30"/>
  <object id="199" x="730" y="1088" width="42" height="28"/>
  <object id="200" x="760" y="1108" width="38" height="30"/>
  <object id="201" x="786" y="1132" width="46" height="28"/>
  <object id="202" x="826" y="1152" width="50" height="24"/>
  <object id="203" x="868" y="1170" width="44" height="30"/>
  <object id="204" x="900" y="1194" width="46" height="20"/>
  <object id="205" x="942" y="1172" width="40" height="34"/>
  <object id="206" x="984" y="1152" width="32" height="32"/>
  <object id="207" x="1026" y="1132" width="36" height="20"/>
  <object id="208" x="1080" y="1096" width="38" height="36"/>
  <object id="209" x="1052" y="1120" width="32" height="26"/>
  <object id="210" x="1112" y="1078" width="32" height="32"/>
  <object id="211" x="1100" y="1034" width="40" height="44"/>
  <object id="212" x="1138" y="1062" width="36" height="36"/>
  <object id="213" x="1044" y="1010" width="58" height="34"/>
  <object id="214" x="952" y="978" width="56" height="28"/>
  <object id="215" x="1002" y="998" width="50" height="26"/>
  <object id="216" x="900" y="974" width="60" height="32"/>
  <object id="217" x="880" y="976" width="22" height="28"/>
  <object id="218" x="858" y="992" width="30" height="16"/>
  <object id="219" x="784" y="1018" width="70" height="28"/>
  <object id="220" x="832" y="1006" width="46" height="30"/>
  <object id="221" x="770" y="1044" width="52" height="36"/>
  <object id="222" x="738" y="1062" width="60" height="44"/>
  <object id="233" x="694" y="844" width="56" height="32" visible="0"/>
  <object id="235" x="736" y="866" width="44" height="36" visible="0"/>
  <object id="240" x="584" y="970" width="36" height="56" visible="0"/>
  <object id="249" x="1985" y="998" width="13" height="227.5"/>
  <object id="250" x="1675.5" y="1457.5" width="155" height="34"/>
  <object id="251" x="1882.5" y="1410.5" width="40.5" height="76.5"/>
  <object id="252" x="1848" y="1436" width="35.5" height="54.5"/>
  <object id="253" x="1824" y="1450" width="53" height="40.5"/>
  <object id="254" x="1917.5" y="1396" width="83.5" height="90.5"/>
  <object id="255" x="1941.5" y="1257.5" width="50" height="150"/>
  <object id="256" x="1652" y="1169.5" width="71.5" height="72"/>
  <object id="257" x="1726.5" y="1192" width="50.5" height="56"/>
  <object id="258" x="1779" y="1212.5" width="33.5" height="83"/>
  <object id="259" x="1814.5" y="1237.5" width="28.5" height="104"/>
  <object id="260" x="1652.5" y="1321" width="119.5" height="45"/>
  <object id="261" x="1622" y="1360" width="79.5" height="41"/>
  <object id="262" x="1611" y="1406.5" width="72" height="50.5"/>
  <object id="266" x="372.5" y="913.5" width="349" height="12.5">
   <ellipse/>
  </object>
  <object id="267" x="559.5" y="810.5" width="72" height="112">
   <ellipse/>
  </object>
  <object id="268" x="626" y="830" width="55" height="110">
   <ellipse/>
  </object>
  <object id="269" x="674.5" y="844.5" width="58" height="89.5">
   <ellipse/>
  </object>
  <object id="270" x="730" y="864.5" width="35.5" height="51.5">
   <ellipse/>
  </object>
  <object id="271" x="519.5" y="838.5" width="47" height="82">
   <ellipse/>
  </object>
  <object id="272" x="553" y="817" width="29" height="47.5">
   <ellipse/>
  </object>
  <object id="273" x="494" y="850.5" width="38.5" height="78">
   <ellipse/>
  </object>
  <object id="274" x="525.5" y="829.5" width="16" height="60">
   <ellipse/>
  </object>
  <object id="275" x="448.5" y="873" width="48" height="82">
   <ellipse/>
  </object>
  <object id="276" x="463.5" y="857.5" width="44.5" height="73.5">
   <ellipse/>
  </object>
  <object id="277" x="413" y="892.5" width="54.5" height="61">
   <ellipse/>
  </object>
  <object id="278" x="374" y="907.5" width="69" height="38">
   <ellipse/>
  </object>
  <object id="279" x="436" y="928.5" width="67" height="52">
   <ellipse/>
  </object>
  <object id="280" x="485" y="936.5" width="88.5" height="49.5">
   <ellipse/>
  </object>
  <object id="281" x="504.5" y="896.5" width="161" height="90">
   <ellipse/>
  </object>
  <object id="282" x="621.5" y="902.5" width="98" height="52">
   <ellipse/>
  </object>
  <object id="283" x="506" y="959" width="99" height="66.5">
   <ellipse/>
  </object>
  <object id="284" x="175.5" y="819" width="68.5" height="24"/>
  <object id="285" x="238" y="804.5" width="62" height="15"/>
  <object id="286" x="294" y="782" width="56" height="21"/>
  <object id="287" x="340" y="771" width="78" height="1.5"/>
  <object id="288" x="417.5" y="766" width="0.5" height="0.5"/>
  <object id="289" x="383.5" y="743" width="63.5" height="25"/>
  <object id="290" x="428" y="729" width="41" height="16"/>
  <object id="291" x="133" y="840" width="140.5" height="19.5">
   <ellipse/>
  </object>
  <object id="292" x="202.5" y="799.5" width="111.5" height="33.5">
   <ellipse/>
  </object>
  <object id="293" x="256" y="776" width="112.5" height="32.5">
   <ellipse/>
  </object>
  <object id="294" x="285" y="750" width="125" height="38.5">
   <ellipse/>
  </object>
  <object id="295" x="359.5" y="731.5" width="104.5" height="35.5">
   <ellipse/>
  </object>
  <object id="296" x="391" y="693.5" width="116.5" height="51.5">
   <ellipse/>
  </object>
  <object id="297" x="400" y="654" width="118" height="62.5">
   <ellipse/>
  </object>
  <object id="299" x="32" y="887" width="153.5" height="37">
   <ellipse/>
  </object>
  <object id="300" x="74.5" y="839" width="151" height="58">
   <ellipse/>
  </object>
  <object id="301" x="27.5" y="908" width="124" height="83.5">
   <ellipse/>
  </object>
  <object id="302" x="131.5" y="921.5" width="88" height="120.5">
   <ellipse/>
  </object>
  <object id="303" x="194.5" y="954.5" width="42.5" height="128.5">
   <ellipse/>
  </object>
  <object id="304" x="217.5" y="963.5" width="41" height="103.5">
   <ellipse/>
  </object>
  <object id="305" x="244.5" y="975" width="35.5" height="78.5">
   <ellipse/>
  </object>
  <object id="306" x="279" y="994" width="39" height="77">
   <ellipse/>
  </object>
  <object id="307" x="303" y="995.5" width="57" height="86.5">
   <ellipse/>
  </object>
  <object id="308" x="346.5" y="1005.5" width="38" height="94.5">
   <ellipse/>
  </object>
  <object id="309" x="361.5" y="1012" width="69.5" height="96.5">
   <ellipse/>
  </object>
  <object id="310" x="424" y="1042.5" width="38.5" height="158">
   <ellipse/>
  </object>
  <object id="311" x="387.5" y="1095" width="37.5" height="137.5">
   <ellipse/>
  </object>
  <object id="312" x="229.5" y="1051" width="64.5" height="126">
   <ellipse/>
  </object>
  <object id="313" x="173" y="1028" width="74" height="121.5">
   <ellipse/>
  </object>
  <object id="314" x="103" y="994" width="90" height="123.5">
   <ellipse/>
  </object>
  <object id="315" x="54.5" y="952.5" width="73.5" height="141.5">
   <ellipse/>
  </object>
  <object id="316" x="340.5" y="1250" width="34.5" height="138.5">
   <ellipse/>
  </object>
  <object id="317" x="370.5" y="1222" width="44" height="141">
   <ellipse/>
  </object>
  <object id="318" x="384" y="1200.5" width="55.5" height="99.5">
   <ellipse/>
  </object>
  <object id="319" x="124.5" y="1142.5" width="90" height="85">
   <ellipse/>
  </object>
  <object id="320" x="71" y="1196" width="90" height="118">
   <ellipse/>
  </object>
  <object id="321" x="39.5" y="1263.5" width="77" height="127">
   <ellipse/>
  </object>
  <object id="322" x="24" y="1340" width="33.5" height="129">
   <ellipse/>
  </object>
  <object id="323" x="243.5" y="1339" width="55" height="140.5">
   <ellipse/>
  </object>
  <object id="324" x="302.5" y="1307" width="48.5" height="120">
   <ellipse/>
  </object>
  <object id="325" x="320" y="1246" width="40.5" height="120.5">
   <ellipse/>
  </object>
  <object id="326" x="341.5" y="1201.5" width="65.5" height="110">
   <ellipse/>
  </object>
  <object id="327" x="222.5" y="1410.5" width="42.5" height="76">
   <ellipse/>
  </object>
  <object id="328" x="230.5" y="1384" width="41" height="89">
   <ellipse/>
  </object>
  <object id="329" x="204.5" y="1422.5" width="28.5" height="70.5">
   <ellipse/>
  </object>
  <object id="330" x="183" y="1460" width="23" height="30">
   <ellipse/>
  </object>
  <object id="331" x="27" y="1448" width="156.5" height="44">
   <ellipse/>
  </object>
  <object id="332" x="459" y="1124" width="87.5" height="83">
   <ellipse/>
  </object>
  <object id="333" x="531.5" y="1173.5" width="76.5" height="77">
   <ellipse/>
  </object>
  <object id="334" x="601" y="1208" width="60.5" height="78">
   <ellipse/>
  </object>
  <object id="335" x="640.5" y="1246" width="61.5" height="73.5">
   <ellipse/>
  </object>
  <object id="336" x="681.5" y="1265.5" width="67.5" height="83">
   <ellipse/>
  </object>
  <object id="337" x="741.5" y="1301.5" width="72.5" height="72.5">
   <ellipse/>
  </object>
  <object id="338" x="783" y="1316" width="127.5" height="85.5">
   <ellipse/>
  </object>
  <object id="339" x="904.5" y="1362.5" width="156.5" height="65">
   <ellipse/>
  </object>
  <object id="340" x="870.5" y="1338.5" width="178.5" height="71.5">
   <ellipse/>
  </object>
  <object id="341" x="1032" y="1380" width="143.5" height="37">
   <ellipse/>
  </object>
 </objectgroup>
</map>
