<?xml version="1.0" encoding="UTF-8"?>
<map version="1.8" tiledversion="1.8.6" orientation="orthogonal" renderorder="right-down" width="1" height="1" tilewidth="3780" tileheight="2395" infinite="0" nextlayerid="10" nextobjectid="261">
 <tileset firstgid="1" name="village" tilewidth="3780" tileheight="2395" tilecount="1" columns="1">
  <image source="../img/village.jpg" width="3780" height="2395"/>
 </tileset>
 <imagelayer id="7" name="backgroud" locked="1">
  <image source="../img/village.jpg" width="3780" height="2395"/>
 </imagelayer>
 <objectgroup id="3" name="elder" locked="1" offsetx="0" offsety="-12">
  <object id="7" name="elder3" x="520" y="952">
   <point/>
  </object>
  <object id="8" name="elder2" x="844" y="1760">
   <point/>
  </object>
  <object id="9" name="elder1" x="2408" y="1564">
   <point/>
  </object>
  <object id="17" name="elder4" x="2908" y="2204">
   <point/>
  </object>
 </objectgroup>
 <objectgroup id="9" name="obstacle">
  <object id="31" x="324" y="487" width="52" height="132"/>
  <object id="33" x="268" y="628" width="76" height="104"/>
  <object id="34" x="312" y="768" width="120" height="108"/>
  <object id="35" x="404" y="856" width="124" height="100"/>
  <object id="36" x="508" y="932" width="192" height="80"/>
  <object id="37" x="652" y="984" width="108" height="72"/>
  <object id="38" x="728" y="1084" width="112" height="140"/>
  <object id="39" x="820" y="1212" width="8"/>
  <object id="40" x="772" y="1208" width="104" height="124"/>
  <object id="41" x="832" y="1312" width="292" height="104"/>
  <object id="42" x="968" y="1380" width="84" height="104"/>
  <object id="43" x="1052" y="1484" width="148" height="100"/>
  <object id="44" x="1180" y="1528" width="220" height="84"/>
  <object id="45" x="1356" y="1492" width="276" height="120"/>
  <object id="46" x="1560" y="1592" width="260" height="140"/>
  <object id="47" x="1788" y="1676" width="216" height="132"/>
  <object id="48" x="28" y="524" width="56" height="224"/>
  <object id="49" x="24" y="720" width="72" height="220"/>
  <object id="50" x="52" y="384" width="72" height="152"/>
  <object id="51" x="84" y="304" width="208" height="112"/>
  <object id="52" x="219" y="209" width="168" height="144"/>
  <object id="53" x="76" y="924" width="48" height="136"/>
  <object id="54" x="108" y="1032" width="168" height="68"/>
  <object id="55" x="260" y="1072" width="152" height="72"/>
  <object id="56" x="388" y="1108" width="100" height="96"/>
  <object id="57" x="460" y="1164" width="80" height="96"/>
  <object id="58" x="296" y="1268" width="168" height="44"/>
  <object id="59" x="144" y="1280" width="144" height="168"/>
  <object id="60" x="224" y="1428" width="112" height="124"/>
  <object id="61" x="368" y="1448" width="188" height="128"/>
  <object id="62" x="548" y="1428" width="76" height="148"/>
  <object id="63" x="604" y="1536" width="60" height="76"/>
  <object id="64" x="656" y="1592" width="96" height="40"/>
  <object id="65" x="716" y="1672" width="40" height="136"/>
  <object id="66" x="632" y="1832" width="68" height="124"/>
  <object id="67" x="660" y="1960" width="100" height="84"/>
  <object id="68" x="696" y="2012" width="224" height="80"/>
  <object id="69" x="916" y="1952" width="108" height="84"/>
  <object id="70" x="868" y="1888" width="160" height="72"/>
  <object id="71" x="1008" y="1832" width="120" height="76"/>
  <object id="72" x="1152" y="1808" width="124" height="96"/>
  <object id="73" x="1284" y="1864" width="68" height="140"/>
  <object id="74" x="1304" y="2000" width="60" height="136"/>
  <object id="75" x="1340" y="2108" width="156" height="92"/>
  <object id="76" x="1488" y="2168" width="172" height="104"/>
  <object id="77" x="1640" y="2136" width="172" height="132"/>
  <object id="78" x="1796" y="2076" width="160" height="112"/>
  <object id="79" x="1952" y="2064" width="128" height="180"/>
  <object id="81" x="2064" y="2232" width="108" height="76"/>
  <object id="82" x="2196" y="2184" width="92" height="124"/>
  <object id="83" x="2288" y="2292" width="144" height="88"/>
  <object id="84" x="3084" y="2168" width="148" height="96"/>
  <object id="85" x="3192" y="2256" width="88" height="120"/>
  <object id="86" x="2900" y="2052" width="224" height="156"/>
  <object id="87" x="3108" y="2192" width="4" height="4"/>
  <object id="88" x="2744" y="1964" width="172" height="132"/>
  <object id="89" x="2652" y="2056" width="164" height="76"/>
  <object id="90" x="2716" y="1836" width="88" height="156"/>
  <object id="91" x="2796" y="1708" width="124" height="116"/>
  <object id="92" x="2900" y="1632" width="132" height="100"/>
  <object id="93" x="3020" y="1552" width="84" height="80"/>
  <object id="94" x="3092" y="1472" width="112" height="100"/>
  <object id="95" x="3076" y="1416" width="100" height="44"/>
  <object id="96" x="3136" y="1384" width="84" height="44"/>
  <object id="97" x="3192" y="1348" width="136" height="40"/>
  <object id="98" x="3312" y="1308" width="132" height="64"/>
  <object id="99" x="3464" y="1304" width="184" height="52"/>
  <object id="100" x="3536" y="1168" width="136" height="132"/>
  <object id="101" x="3576" y="1040" width="116" height="136"/>
  <object id="102" x="3504" y="916" width="200" height="112"/>
  <object id="103" x="3320" y="824" width="212" height="124"/>
  <object id="104" x="3248" y="780" width="104" height="92"/>
  <object id="105" x="3120" y="700" width="152" height="108"/>
  <object id="106" x="3008" y="652" width="144" height="128"/>
  <object id="107" x="3044" y="512" width="76" height="156"/>
  <object id="108" x="3104" y="468" width="140" height="104"/>
  <object id="109" x="3208" y="380" width="108" height="64"/>
  <object id="110" x="3300" y="352" width="176" height="48"/>
  <object id="111" x="3460" y="272" width="136" height="92"/>
  <object id="112" x="3448" y="168" width="144" height="112"/>
  <object id="113" x="3244" y="144" width="216" height="56"/>
  <object id="114" x="3136" y="172" width="140" height="36"/>
  <object id="115" x="2984" y="156" width="184" height="56"/>
  <object id="116" x="2880" y="208" width="172" height="100"/>
  <object id="117" x="2772" y="292" width="204" height="72"/>
  <object id="118" x="2672" y="360" width="180" height="80"/>
  <object id="119" x="2579" y="392" width="180" height="60"/>
  <object id="120" x="1969" y="574" width="208" height="60"/>
  <object id="121" x="2284" y="524" width="160" height="68"/>
  <object id="122" x="2376" y="620" width="92" height="64"/>
  <object id="123" x="1964" y="1596" width="176" height="96"/>
  <object id="124" x="2108" y="1520" width="120" height="108"/>
  <object id="125" x="2208" y="1456" width="132" height="96"/>
  <object id="126" x="2320" y="1364" width="156" height="120"/>
  <object id="127" x="2464" y="1308" width="132" height="80"/>
  <object id="128" x="2616" y="1312" width="160" height="60"/>
  <object id="129" x="2780" y="1292" width="176" height="84"/>
  <object id="130" x="2952" y="1308" width="80" height="60"/>
  <object id="133" x="3028" y="1264" width="88" height="40"/>
  <object id="134" x="3028" y="1292" width="44" height="44"/>
  <object id="135" x="2996" y="1156" width="120" height="80"/>
  <object id="136" x="2928" y="1028" width="140" height="100"/>
  <object id="142" x="2280" y="800" width="4"/>
  <object id="148" x="1936" y="960" width="64" height="100"/>
  <object id="149" x="1756" y="1064" width="204" height="84"/>
  <object id="150" x="1592" y="992" width="140" height="100"/>
  <object id="153" x="1436" y="920" width="148" height="124"/>
  <object id="154" x="1340" y="864" width="84" height="96"/>
  <object id="155" x="1236" y="816" width="124" height="96"/>
  <object id="156" x="1072" y="724" width="144" height="112"/>
  <object id="157" x="1024" y="676" width="80" height="92"/>
  <object id="158" x="896" y="560" width="124" height="140"/>
  <object id="159" x="756" y="504" width="152" height="108"/>
  <object id="160" x="740" y="420" width="68" height="116"/>
  <object id="162" x="1186" y="10" width="156" height="84"/>
  <object id="163" x="1117" y="93" width="160" height="116"/>
  <object id="164" x="1080" y="400" width="4" height="8"/>
  <object id="165" x="1084" y="392" height="4"/>
  <object id="166" x="809" y="3" width="136" height="141"/>
  <object id="167" x="1101" y="207" width="144" height="88"/>
  <object id="168" x="1203" y="281" width="152" height="80"/>
  <object id="169" x="1310" y="360" width="176" height="92"/>
  <object id="170" x="1458" y="450" width="168" height="80"/>
  <object id="172" x="1697" y="587" width="204" height="80"/>
  <object id="173" x="1884" y="639" width="116" height="72"/>
  <object id="174" x="1984" y="668" width="148" height="72"/>
  <object id="175" x="2100" y="632" width="128" height="64"/>
  <object id="176" x="2180" y="584" width="148" height="88"/>
  <object id="177" x="2428" y="2372" width="800" height="24"/>
  <object id="200" name="water" x="2620" y="1310" width="360" height="175"/>
  <object id="201" name="water" x="3280" y="1285" width="500" height="205"/>
  <object id="202" name="water" x="301" y="27" width="248" height="179"/>
  <object id="203" name="water" x="453" y="392" width="250" height="180"/>
  <object id="204" name="water" x="540" y="470" width="230" height="170"/>
  <object id="205" name="water" x="650" y="580" width="320" height="200"/>
  <object id="206" name="water" x="800" y="720" width="330" height="230"/>
  <object id="207" name="water" x="560" y="840" width="430" height="180"/>
  <object id="208" x="389" y="215" width="63" height="29"/>
  <object id="211" x="477" y="324" width="125" height="55">
   <ellipse/>
  </object>
  <object id="213" x="501" y="-79">
   <point/>
  </object>
  <object id="214" x="436" y="354" width="37" height="103">
   <ellipse/>
  </object>
  <object id="216" x="2366" y="13" width="176" height="134"/>
  <object id="217" x="2556" y="80" width="206" height="145"/>
  <object id="218" x="2772" y="187" width="92" height="104"/>
  <object id="219" x="2668" y="272" width="79" height="93"/>
  <object id="220" x="2583" y="318" width="64" height="72"/>
  <object id="221" x="2648" y="283" width="13" height="101"/>
  <object id="222" x="1785" y="532" width="135" height="59">
   <ellipse/>
  </object>
  <object id="225" x="1712" y="545" width="44" height="38"/>
  <object id="226" x="1347" y="27" width="205" height="217"/>
  <object id="227" x="1285" y="105" width="57" height="165"/>
  <object id="228" x="1363" y="261" width="188" height="93"/>
  <object id="229" x="1562" y="4" width="332" height="95"/>
  <object id="230" x="1561" y="110" width="144" height="143"/>
  <object id="231" x="1670" y="219" width="116" height="89"/>
  <object id="232" x="1978" y="13" width="429" height="158"/>
  <object id="233" x="1900" y="9" width="71" height="89"/>
  <object id="234" x="2436" y="135" width="99" height="110"/>
  <object id="235" x="2548" y="226" width="211" height="76"/>
  <object id="236" x="2130" y="845" width="142" height="93"/>
  <object id="237" x="2038" y="1040" width="522" height="145"/>
  <object id="238" x="2271" y="1002" width="98" height="29"/>
  <object id="239" x="2568" y="1082" width="333" height="149"/>
  <object id="241" x="2779" y="917" width="183" height="120"/>
  <object id="242" x="2905" y="1140" width="88" height="92"/>
  <object id="243" x="2803" y="1042" width="149" height="55"/>
  <object id="244" x="809" y="2040" width="1" height="1"/>
  <object id="245" x="548" y="2" width="257" height="49"/>
  <object id="246" x="950" y="6" width="232" height="85"/>
  <object id="248" x="1777" y="1919" width="290" height="75"/>
  <object id="250" x="461" y="213" width="57" height="19">
   <ellipse/>
  </object>
  <object id="254" x="512" y="273" width="67" height="44">
   <ellipse/>
  </object>
  <object id="255" x="693" y="313">
   <ellipse/>
  </object>
  <object id="256" x="482" y="289" width="17" height="72">
   <ellipse/>
  </object>
  <object id="257" x="467" y="309" width="23" height="71">
   <ellipse/>
  </object>
  <object id="258" x="501" y="292" width="15" height="40">
   <ellipse/>
  </object>
  <object id="259" x="607" y="332" width="41" height="54">
   <ellipse/>
  </object>
  <object id="260" x="583" y="297" width="33" height="37">
   <ellipse/>
  </object>
 </objectgroup>
 <objectgroup id="4" name="actor">
  <object id="18" name="sun" x="2726.78" y="496.664">
   <point/>
  </object>
  <object id="19" name="tang" x="2152" y="1892">
   <point/>
  </object>
 </objectgroup>
 <objectgroup id="5" name="child" locked="1">
  <object id="10" name="boy1" x="3228" y="1576">
   <point/>
  </object>
  <object id="11" name="girl2" x="3268" y="1648">
   <point/>
  </object>
  <object id="12" name="girl1" x="3400" y="1588">
   <point/>
  </object>
  <object id="14" name="boy2" x="3018.15" y="285.727">
   <point/>
  </object>
  <object id="15" name="girl3" x="2985" y="352">
   <point/>
  </object>
 </objectgroup>
 <objectgroup id="6" name="god" locked="1">
  <object id="13" name="god" x="2724.61" y="631.54">
   <point/>
  </object>
 </objectgroup>
</map>
